X: 14
T: HORNPIPE: Liverpool
C: C: Trad.; S: Various
C: Set Leaders: Mars, Tania
Z: [Unedited]; Finnbarr at The Session
N: https://thesession.org/members/26966/sets/94258
R: Hornpipe
M: 4/4
L: 1/8
Q: 1/2=82
K: Dmaj
|:AG|FDFA dfaf|gfec dcBA|G2BG F2AF|EDEF GFED|
FDFA dfaf|gfec dcBA|dfaf bgec|d2 d2 d2:||
|:A2|d2fd c2dc|BABc dcBA|G2BG F2AF|EDEF GFED|
FDFA dfaf|gfec dcBA|dfaf bgec|d2 d2 d2:||

